X: 59
T:Ejercicio 5. Escala de Falsos Silencios
M:4/4
L:1/8
K:C
B,"F."G B,2 | C"F."G C2 | D"F."G D2 | E"F."cE2 | F"F."cF2 | G"F."cG2 | A
"F."cA2 | B"F."cB2 | c"F."gc2 | 
 B"F."cB2 |A"F."cA2 |  G"F."cG2  | F"F."cF2  | E"F."cE2  | D"F."G D2 | C
"F."G C2 :| 

